X:1
T:Si iay de moy
T:Si iay de moy
T:Cornelius Canis
C:Cornelius Canis
%%score [ 1 2 3 4 ]
L:1/8
Q:1/4=80
M:2/2
K:C
V:1 treble nm="Superius" snm="S"
V:2 treble-8 nm="Tenor 1" snm="T 1"
V:3 treble-8 nm="Tenor 2" snm="T 2"
V:4 bass nm="Bassus" snm="B"
V:1
 z8 | z8 | z8 | z8 | z4 F2 FG | A2 G2 A2 B2 | c3 B G2 d2- | dc c4 B2 | c4 z4 | z4 F2 FG | %10
w: ||||Si j'ay de|moy tant voulu pre-|su- * * *||mer,|d'ay- mer si|
 A2 G2 A2 B2 | c3 B G2 B2 | A2 c4 B2 | c2 BA G2 c2 |"^#" B2 A4 G2 | A8 | z2 A2 G2 F2 | %17
w: hault, veiul- lez moy|per- * * *|||* * don-|ner,|dieu des a-|
 E2 D2 G2 G2 | A2 c4 BA | B2 G4 F2- | FE D4 C2 | D2 A3 G G2- |"^#" G2 F2 G4- | G4 z4 | z8 | %25
w: mans, do- mi- nant|tout le _ _|mon- * *|||* * de,|_||
 G4 G2 G2 | A2 E2 F2 A2 | G4 F2 A2- | AG AB cB d2- | dc c4 B2 | c4 z2 c2 | c4 A4 | G4 z2 G2 | %33
w: il ne sen|trou- ve soubz les|cieulx la se|_ _ _ _ _ _ con-||de, par|quoy je|dis que|
 A2 c2 BA GF | ED A3 G G2- | G2 F2 G4 | E2 F2 G4 | z4 F2 FG | A2 G2 A2 B2 | c3 B G2 B2 | A2 c4 B2 | %41
w: ne suis a _ _ _|_ _ bla- * *|* * mer,|a bla- mer,|si j'ay de|moy tant vou- lu|pre- * * *||
 c2 BA G2 c2 | B2 A4 G2 | A8 | z4 F2 FG | A2 G2 A2 B2 | c3 B G2 B2 | A2 c4 B2 | c2 BA G2 c2 | %49
w: |* * su-|mer,|si j'ay de|moy tant vou- lu|pre- * * *|||
 B2 A4 G2 | A8 |] %51
w: * * su-|mer.|
V:2
 z8 | z4 c2 cd | e2 d2 e2 f2 | g3 f e2 d2- | dc c4 B2 | c2 e4 d2 | e4 z4 | c2 cd e2 d2- | %8
w: |Si j'ay de|moy tant vou- lu|pre- * * *||* * su-|mer,|si j'ay de moy tant|
 dc c3 A B2 | e2 e2 d4 | z8 | c2 cd e2 d2 | f4 e2 g2 | f4 e2 g2- | gfed e4 | c4 z4 | z8 | z8 | %18
w: _ _ vou- * lu|pre- su- mer,||d'ay- mer si hault, veiul-|lez moy per-|don- * *||ner,|||
 z4 z2 e2 | d2 c2 B2 A2 | d2 d2 e2 g2- | g2 f2 e4 | d4 z2 d2 | d2 d2 e2 B2 | c2 e2 d3 c | %25
w: dieu|des a- mans, do-|mi- nant tout le-|* * mon-|de il|ne sen trou- ve|soubz les cieulx _|
 BA G3 A B2 | c3 B c2 d2- | d2 c2 d2 f2- | f2 ed c2 g2 | e2 dc g4 | z2 e2 e4 | c6 BA | %32
w: _ _ _ la se-|con- * * *|||* * * de,|je dis|par _ _|
 c3 d ef g2- | g2 f2 g4 | z8 | z4 z2 G2 | A2 c2 B2 d2- | dc c4 B2 | c2 e2 d3 c | A4 z4 | %40
w: _ _ _ _ _|* * quoy||qui|ne suis a bla-|||mer,|
 z2 c2 cd e2- | e2 d2 e2 g2- | gfed e2 e2 | A8 | z8 | z8 | c2 cd e2 d2 | f4 e2 g2 | f4 e2 g2- | %49
w: si j'ay de moy|_ tant vou- lu|_ _ _ _ pre- su-|mer,|||si j'ay de moy tant|vou- lu pre-||
 gfed e4 | c8 |] %51
w: * * * * su-|mer.|
V:3
 z8 | z8 | z8 | z8 | z8 | z8 | c2 cd e2 d2 | e2 f2 g4- | g2 f2 e2 d2- | dc c4 B2 | c2 e2 d3 c | %11
w: ||||||Si j'ay de moy tant|vou- lu pre-|||* * * su-|
 A4 z4 | z2 c2 cd e2- | e2 d2 e3 d/c/ | d2 c2 B4 | A2 e2 d2 c2 | B2 A2 c2 dc | BA B2 G2 g2- | %18
w: mer,|d'ay- mer si hault,|_ veiul- ler _ _|moy per- don-|ner, dieu des a-|mans, do- mi- nant _|_ _ _ _ tout|
 g2 f2 g4- | g2 e2 d3 c | A2 B4 AG | A4 c3 B | A4 B4- | B4 z4 | z8 | z8 | z8 | z4 z2 d2 | %28
w: _ le mon-||||* de,|_||||il|
 d2 d2 e2 B2 | c2 e2 d2 e2- | ed cB A2 c2- | cB e4 d2 | e4 z2 c2 | c2 c2 d2 G2 | A2 c3 B/A/ B2 | %35
w: ne sen trou- ve|soubz les cieulx la|_ _ _ _ se- con-||de, Je|dis par quoy qui|ne suis _ _ a|
 c2 A2 G2 e2- | e2 dc d4 | e4 d4 | z8 | c2 cd e2 d2 | f4 e2 g2 | f4 e3 d/c/ | d2 c2 B2 c2- | %43
w: bla- * * *||* mer,||si j'ay de moy tant|vou- lu pre-|||
 c2 BA c2 d2- | dc c4 B2 | c2 e2 d3 c | A4 z4 | z2 c2 cd e2- | e2 d2 e3 d/c/ | d2 c2 B4 | A8 |] %51
w: ||* * * su-|mer,|si j'ay de moy|_ tant vou- * *|lu pre- su-|mer.|
V:4
 F,2 F,G, A,2 G,2 | A,2 B,2 C3 B, | G,2 _B,2 A,3 G, | E,2 G,4 F,2 | E,2 D,C, D,4 | C,2 C4 B,2 | %6
w: Si j'ay de moy tant|vou- lu pre- *|||* * * su-|mer, si j'ay|
 A,2 C4 B,2 | A,4 G,3 F, | E,2 F,2 G,3 F, | E,2 D,C, D,4 | C,4 z4 | z8 | F,2 F,G, A,2 G,2 | %13
w: de moy tant|vou- lu _|_ pre- * *|* * * su-|mer,||d'ay- mer si hault, veiul-|
 A,2 B,2 C3 B, | G,2 A,2 E,4 | A,4 z2 A,2 | G,2 F,2 E,2 D,2 | G,3 A, B,2 C2 | A,4 G,4- | %19
w: lez moy per- *|* * don-|ner, dieu|des a- mans, do-|mi- nant tout le|mon- *|
 G,2 C,2 D,3 E, | F,2 G,2 E,4 | D,6 C,2 | D,4 G,4 | z2 G,2 G,2 G,2 | A,2 E,2 F,2 G,2- | %25
w: |||* de,|il ne sen|trou- ve soubz les-|
 G,F, E,D, C,2 G,2 | F,2 A,3 G, F,2 | E,4 D,4 | z2 D,2 A,2 G,2 | A,2 C2 G,4 | A,3 B, C2 A,2- | %31
w: * * * * * cieulx|la se- * *|con- de,|il ne sen|trou- ve soubz|les cieulx la se-|
 A,G, F,E, F,4 | C,2 C2 C4 | A,4 G,4 | z4 z2 G,2 | A,2 C3 B,/A,/ B,2 | C2 A,2 G,3 F, | %37
w: * * * * con-|de, je dis|par quoy|qui|ne suis _ _ _|a bla- * *|
 E,2 D,C, D,4 | C,4 z4 | z8 | F,2 F,G, A,2 G,2 | A,2 B,2 C3 B, | G,2 A,2 E,4 | F,6 E,D, | %44
w: |mer,||si j'ay de moy tant|vou- lu pre- *|||
"^#" E,2 F,2 D,4 | C,4 z4 | z8 | F,2 F,G, A,2 G,2 | A,2 B,2 C3 B, | G,2 A,2 E,4 | A,8 |] %51
w: * * su-|mer,||si j'ay de moy tant|vou- lu pre _|_ _ su-|mer.|

